src/assets/icon/ic_author.svg

<svg width="360" height="400" viewBox="0 0 360 400" fill="none" xmlns="http://www.w3.org/2000/svg">
<path d="M179.592 225.052C63.7808 225.052 0 281.851 0 384.989C0 393.044 6.2973 399.572 14.0671 399.572H345.115C352.885 399.572 359.183 393.044 359.183 384.989C359.183 281.857 295.402 225.052 179.592 225.052ZM28.6461 370.405C34.1793 293.291 84.8912 254.221 179.592 254.221C274.292 254.221 325.005 293.291 330.542 370.405H28.6461V370.405Z" fill="#434343"/>
<path d="M179.588 0C126.39 0 86.2756 42.4213 86.2756 98.6721C86.2756 156.57 128.135 203.668 179.588 203.668C231.041 203.668 272.9 156.57 272.9 98.6768C272.9 42.4213 232.786 0 179.588 0ZM179.588 174.507C143.646 174.507 114.41 140.49 114.41 98.6768C114.41 58.3993 141.822 29.1653 179.588 29.1653C216.749 29.1653 244.766 59.0455 244.766 98.6768C244.766 140.49 215.53 174.507 179.588 174.507Z" fill="#434343"/>
</svg>

<svg width="360" height="400" fill="none" xmlns="http://www.w3.org/2000/svg"><path d="M179.592 225.052C63.781 225.052 0 281.851 0 384.989c0 8.055 6.297 14.583 14.067 14.583h331.048c7.77 0 14.068-6.528 14.068-14.583 0-103.132-63.781-159.937-179.591-159.937zM28.646 370.405c5.533-77.114 56.245-116.184 150.946-116.184 94.7 0 145.413 39.07 150.95 116.184H28.646zM179.588 0C126.39 0 86.276 42.421 86.276 98.672c0 57.898 41.859 104.996 93.312 104.996 51.453 0 93.312-47.098 93.312-104.991C272.9 42.42 232.786 0 179.588 0zm0 174.507c-35.942 0-65.178-34.017-65.178-75.83 0-40.278 27.412-69.512 65.178-69.512 37.161 0 65.178 29.88 65.178 69.512 0 41.813-29.236 75.83-65.178 75.83z" fill="#434343"/></svg>
